X: 5
T:The Shoemakers Daughter
R:Reel
N:As played
S:Gerry O'Connor, Louth (fiddle)
M:4/4
D:Ballaghadereen Fleadh, 1977
H:Start of part 2 also '~g2dg'
Z:Bernie Stocks
K:G %ish
G2DG Bc{d}cA | GzD=F {G}=FDCD | G3A Bcde | fdBd cABc | dg~g2 dc~c2 |
Bcde fdBd | (3gag dg fdcA | FGAF G2 (3.E.D.C | B,DGA BcdA | G=FDF {G}=FDCA |
G2(3.D.D.D Bcde | fdBd cABc | dg~g2 dc~c2 | Bcde fdBd | (3gag dc BcdB |
cAFA G2Bd |: (3gag dg bgdg | (3.g.a.g dg fdBd | (3.g.a.g dg bgdg | fdcA BGBd |
{a}gedc BG~G2 | FGAc {d}cABc | dg~g2 defd | cAFA G4 :|
<end>
<start>
